packages/IonIcons/src/DocumentIcon/index.svg

<svg xmlns="http://www.w3.org/2000/svg" viewBox="0 0 512 512">
  <path d="M428 224H288a48 48 0 01-48-48V36a4 4 0 00-4-4h-92a64 64 0 00-64 64v320a64 64 0 0064 64h224a64 64 0 0064-64V228a4 4 0 00-4-4z"/>
  <path d="M419.22 188.59L275.41 44.78a2 2 0 00-3.41 1.41V176a16 16 0 0016 16h129.81a2 2 0 001.41-3.41z"/>
</svg>

<svg xmlns="http://www.w3.org/2000/svg" width="512" height="512" viewBox="0 0 512 512"><title>ionicons-v5-e</title><path d="M428,224H288a48,48,0,0,1-48-48V36a4,4,0,0,0-4-4H144A64,64,0,0,0,80,96V416a64,64,0,0,0,64,64H368a64,64,0,0,0,64-64V228A4,4,0,0,0,428,224Z"/><path d="M419.22,188.59,275.41,44.78A2,2,0,0,0,272,46.19V176a16,16,0,0,0,16,16H417.81A2,2,0,0,0,419.22,188.59Z"/></svg>
